icon/ir/healthcare.svg

<svg stroke-width="1.5" viewBox="0 0 24 24" fill="none" xmlns="http://www.w3.org/2000/svg" height="1em" width="1em">
  <path d="M18 20L21.8243 16.1757C21.9368 16.0632 22 15.9106 22 15.7515V10.5C22 9.67157 21.3284 9 20.5 9V9C19.6716 9 19 9.67157 19 10.5V15" stroke="currentColor" stroke-linecap="round" stroke-linejoin="round"/>
  <path d="M18 16L18.8581 15.1419C18.949 15.051 19 14.9278 19 14.7994V14.7994C19 14.6159 18.8963 14.4482 18.7322 14.3661L18.2893 14.1447C17.5194 13.7597 16.5894 13.9106 15.9807 14.5193L15.0858 15.4142C14.7107 15.7893 14.5 16.298 14.5 16.8284V20" stroke="currentColor" stroke-linecap="round" stroke-linejoin="round"/>
  <path d="M6 20L2.17574 16.1757C2.06321 16.0632 2 15.9106 2 15.7515V10.5C2 9.67157 2.67157 9 3.5 9V9C4.32843 9 5 9.67157 5 10.5V15" stroke="currentColor" stroke-linecap="round" stroke-linejoin="round"/>
  <path d="M6 16L5.14187 15.1419C5.05103 15.051 5 14.9278 5 14.7994V14.7994C5 14.6159 5.10366 14.4482 5.26776 14.3661L5.71067 14.1447C6.48064 13.7597 7.41059 13.9106 8.01931 14.5193L8.91421 15.4142C9.28929 15.7893 9.5 16.298 9.5 16.8284V20" stroke="currentColor" stroke-linecap="round" stroke-linejoin="round"/>
  <path d="M13.6667 12H10.3333V9.66667H8V6.33333H10.3333V4H13.6667V6.33333H16V9.66667H13.6667V12Z" stroke="currentColor" stroke-linecap="round" stroke-linejoin="round"/>
</svg>

<svg width="24" height="24" stroke-width="1.5" fill="none" xmlns="http://www.w3.org/2000/svg"><path d="m18 20 3.824-3.824a.6.6 0 0 0 .176-.424V10.5A1.5 1.5 0 0 0 20.5 9v0a1.5 1.5 0 0 0-1.5 1.5V15" stroke="currentColor" stroke-linecap="round" stroke-linejoin="round"/><path d="m18 16 .858-.858a.484.484 0 0 0 .142-.343v0a.485.485 0 0 0-.268-.433l-.443-.221a2 2 0 0 0-2.308.374l-.895.895a2 2 0 0 0-.586 1.414V20M6 20l-3.824-3.824A.6.6 0 0 1 2 15.752V10.5A1.5 1.5 0 0 1 3.5 9v0A1.5 1.5 0 0 1 5 10.5V15" stroke="currentColor" stroke-linecap="round" stroke-linejoin="round"/><path d="m6 16-.858-.858A.485.485 0 0 1 5 14.799v0c0-.183.104-.35.268-.433l.443-.221a2 2 0 0 1 2.308.374l.895.895a2 2 0 0 1 .586 1.414V20M13.667 12h-3.334V9.667H8V6.333h2.333V4h3.334v2.333H16v3.334h-2.333V12Z" stroke="currentColor" stroke-linecap="round" stroke-linejoin="round"/></svg>
